!!!!SEGMENT: pl-wtm--iii-41-976--001-004_kurpinski-karol-kazimierz--wesele-w-ojcowie-moderato.krn
!!!cenid: 18xx:4256
!!!COM: Kurpiński, Karol Kazimierz
!!!COM-rismID: pe30018952
!!!CDT: 1785/03/06-1857/09/18
!!!CNT: Polish
!!!GTL: Wesele w Ojcowie
!!!OTL: Moderato
!!!OMV: 004
!!!PDT:
!!!AGN:
!!!SMS-siglum: PL-Wtm
!!!SMS-shelfmark: III.41.976
!!!SMS-shelfwork: 001-004 G
!!!SMS-variant:
!!!SMS-altvar:
!!!NIFC-rismSourceID: 1001130735
!!!NIFC-rismChildID: 1001130735
!!!NIFC-islandoraID: pl-wtm:23143
!!!URL-pdf-islandora: https://repozytorium.nifc.pl/islandora/object/pl-wtm:23143/datastream/PDF/view
!!!URL-scan: https://polish.musicsources.pl/pl/lokalizacje/galeria/druki-muzyczne/17811/5 @EN{Scan on Polish Music Sources Website} @PL{Skany w portalu Dziedzictwo Muzyki Polskiej w otwartym dostępie}
!!!IIIF:
!!!ONB-nifc: UWAGA: skan 5
!!!OMD: MODERATO
!!!OMD-mod: Moderato
!!!AIN: 2 piano
!!!key: C
**kern	**kern	**dynam
*part2	*part1	*part1
*staff2	*staff1	*
*I"[FORTEPIAN]	*I"[FORTEPIAN]	*
*I'	*I'	*
*Ipiano	*Ipiano	*
*ICklav	*ICklav	*
*clefF4	*clefG2	*
*k[]	*k[]	*
*C:	*C:	*
*M3/4	*M3/4	*
=1	=1	=1
!	!	!LO:DY:b:rj
4c\	4cc\	f
4G\	4g\	.
(8.E\L	(8.e/L	.
32D\LL	32d/LL	.
32E\JJJ)	32e/JJJ)	.
=2	=2	=2
4A\	4a/	.
4F\	4f/	.
(8.D\L	(8.d/L	.
32E\LL	32e/LL	.
32F\JJJ)	32f/JJJ)	.
=3	=3	=3
(8.G\L	(8.g/L	.
16A\Jk	16a/Jk	.
4G\	4g/	.
4F\)	4f/)	.
!!LO:LB:g=original
=4	=4	=4
(8.E\L	(8.e/L	.
16D\Jk	16d/Jk	.
8C/)	8c/)	.
8r	8cc'\L	.
4r	8cc'\	.
.	8cc'\J	.
=5	=5	=5
8C\L	4ee\	p
8e 8c 8G\	.	.
8e 8c 8G\	8r	.
8e 8c 8G\	8cc'\L	.
8e 8c 8G\	8cc'\	.
8eJ 8c 8G\	8cc'\J	.
=6	=6	=6
8C\L	4ee\	.
8e 8c 8G\	.	.
8e 8c 8G\	8r	.
8e 8c 8G\	8cc'\L	.
8e 8c 8G\	8cc'\	.
8eJ 8c 8G\	8cc'\J	.
=7	=7	=7
8GG\L	(8aa\L	.
8f 8B 8G\	8gg\	.
8f 8B 8G\	8ff\	.
8f 8B 8G\	8ee\	.
8f 8B 8G\	8dd\	.
8fJ 8B 8G\	8cc\J)	.
!!LO:LB:g=original
=8	=8	=8
8GG\L	(8b\L	.
8f 8B 8G\	8a\	.
8f 8B 8G\	8b\	.
8f 8B 8G\	8gg\	.
8f 8B 8G\	8ff\	.
8fJ 8B 8G\	8dd\J)	.
=9	=9	=9
4e 4c\	4cc\	.
4r	8r	.
!	!	!LO:DY:b:rj
.	8bb'\	pp
8B\L	8bbt\L	.
16A\L	16aa\L	.
16B\JJ	16bb\JJ	.
=10	=10	=10
4c\	4ccc 4cc\	f
4G\	4gg 4g\	.
(8.E\L	(8.eeL 8.e\	.
32D\LL	32ddLL 32d\	.
32E\JJJ)	32eeJJJ 32e\)	.
=11	=11	=11
4A\	4aa 4a\	.
4F\	4ff 4f\	.
(8.D\L	(8.ddL 8.d\	.
32E\LL	32eeLL 32e\	.
32F\JJJ)	32ffJJJ 32f\)	.
=12	=12	=12
(8.G\L	(8.ggL 8.g\	.
16A\Jk	16aaJk 16a\	.
4G\	4gg 4g\	.
4F\)	4ff 4f\)	.
!!LO:LB:g=original
=13	=13	=13
(8.E\L	(8.eeL 8.e\	.
16D\Jk	16ddJk 16d\	.
4C\)	8cc 8c\)	.
.	8cc'\L	.
4r	8cc'\	.
.	8cc'\J	.
=14	=14	=14
8C\L	4ee-X\	p
8e-X 8c 8G\	.	.
8e- 8c 8G\	8r	.
8e- 8c 8G\	8cc'\L	.
8e- 8c 8G\	8cc'\	.
8e-J 8c 8G\	8cc'\J	.
=15	=15	=15
8C\L	4ee-X\	.
8e-X 8c 8G\	.	.
8e- 8c 8G\	8r	.
8e- 8c 8G\	8cc'\L	.
8e- 8c 8G\	8cc'\	.
8e-J 8c 8G\	8cc'\J	.
=16	=16	=16
8GG\L	(8aa-X\L	.
8f 8B 8G\	8gg\	.
8f 8B 8G\	8ff\	.
8f 8B 8G\	8ee-X\	.
8f 8B 8G\	8dd\	.
8fJ 8B 8G\	8cc\J)	.
!!LO:LB:g=original
=17	=17	=17
8GG\L	(8b\L	.
8f 8B 8G\	8a\	.
8f 8B 8G\	8b\	.
8f 8B 8G\	8gg\	.
8f 8B 8G\	8ff\	.
8fJ 8B 8G\	8dd\J)	.
=18	=18	=18
4e-X 4c\	4cc\	.
8r	8r	.
8e-X'\L	8ee-X'\L	.
8c'\	8cc'\	.
8B-X'\J	8b-X'\J	.
=19	=19	=19
4A-X^\	4a-X^/	.
4G^\	4g^/	.
4F#X^\	4f#X^/	.
=20	=20	=20
!	!	!LO:DY:b:rj
8.GL 8.GG\	8.g\L	f
16dJk 16G\	16ggJk 16b 16g\	.
4d 4G\	4gg 4b 4g\	.
4r	4r	.
=21	=21	=21
!	!	!LO:DY:b:rj
8.GGL 8.GGG\	8.gL 8.d 8.B 8.G\	ff
16GJk 16GG\	16ggJk 16dd 16b 16g\	.
4G 4GG\	4gg 4dd 4b 4g\	.
4r	4r	.
!!LO:LB:g=original
=22	=22	=22
(<16CLL 16CC^^\	(16c^^\LL	.
32D\L	32d\L	.
32E-X\	32e-X\	.
32F\	32f\	.
32G\	32g\	.
32A\	32a\	.
32B\JJJ)	32b\JJJ)	.
8c'\L	8cc'\L	.
8e-X'\	8ee-X'\	.
8c'\	8cc'\	.
8B-X'\J	8b-X'\J	.
=23	=23	=23
4A-X^\	4a-X^/	.
4G^\	4g^/	.
4F#X^\	4f#X^/	.
=24	=24	=24
4G\	4g/	.
4r	4r	.
8r	8r	.
8G 8GG\	8gg 8b 8g\	.
=25	=25	=25
2G 2GG\	2gg 2b 2g\	.
8r	8r	.
8GG 8GGG/	8g 8G/	.
=26	=26	=26
2GG 2GGG;</	2g 2G;</	.
4r	4r	.
==	==	==
*-	*-	*-
!!!system-decoration: {(s1,s2)}
!!!RDF**kern: > = above
!!!RDF**kern: < = below
!!!RDF**dynam: > = "dim.", fontstyle= "italic"
!!!ENC: Berenika Jozajtis
!!!END: 2022-11-26
!!!ENC: Katarzyna Serwa
!!!END: 2022-12-06
!!!YEC: Copyright 2022 Narodowy Instytut Fryderyka Chopina (https://polishscores.org)
!!!YEM: License CC-BY-4.0 (https://creativecommons.org/licenses/by/4.0)
